src/img/icons/soc_7.svg

<svg width="50" height="50" viewBox="0 0 50 50" fill="none" xmlns="http://www.w3.org/2000/svg">
<g id="2">
<rect id="Rectangle 18623" x="0.5" y="0.5" width="49" height="49" rx="24.5" stroke="#E4DEE0"/>
<g id="Group">
<g id="Group 5471">
<path id="Vector" d="M34.5222 27.4469C33.9314 32.3254 30.4477 32.6299 29.8021 32.8431C29.528 32.9344 26.9883 33.58 23.7908 33.3669L20.3314 37.2038L20.3253 32.7822L20.301 32.7761C15.6478 31.4544 15.8062 26.4907 15.8549 23.8901C15.9097 21.2895 16.3848 19.1517 17.8039 17.7204C20.3497 15.3573 25.6057 15.7106 25.6057 15.7106C30.0396 15.7289 32.1652 17.0992 32.6585 17.556C34.2968 18.9873 35.1312 22.4223 34.5222 27.4469ZM33.8705 16.3379C33.2858 15.7898 30.9349 14.0418 25.691 14.0174C25.691 14.0174 19.5092 13.6337 16.4944 16.4658C14.8195 18.1833 14.2288 20.6987 14.1618 23.817C14.1009 26.9353 14.0217 32.7761 19.5214 34.3596H19.5275V36.7775C19.5275 36.7775 19.4909 37.7581 20.1243 37.953C20.8856 38.1966 21.3302 37.4536 22.0611 36.6496C22.4631 36.2111 23.0112 35.5655 23.4254 35.0722C27.1893 35.395 30.0822 34.6519 30.405 34.5484C31.1663 34.2926 35.4601 33.7323 36.1605 27.8915C36.8731 21.862 35.8012 18.0554 33.8705 16.3379Z" fill="#AE9BA5"/>
<path id="Vector_2" d="M30.5165 28.1774C30.5165 28.1774 29.81 27.5744 29.469 27.3186C29.1462 27.075 28.6285 26.7461 28.3422 26.5817C27.8246 26.2893 27.2947 26.472 27.0754 26.7644L26.6186 27.3491C26.3872 27.6475 26.0279 27.5927 25.9365 27.5744C25.2666 27.4039 24.554 26.9897 23.8231 26.2832C23.0862 25.5706 22.6355 24.8276 22.4771 24.0541L22.4649 24.0054C22.4223 23.6887 22.4771 23.5425 22.605 23.3233L22.6294 23.305C22.9339 23.0187 23.5064 22.6716 23.5795 22.3427C23.8048 21.7702 22.8304 20.5704 22.6964 20.3633C22.6964 20.3633 21.9899 19.4315 21.7402 19.2487C21.4722 19.0234 21.052 18.8955 20.6256 19.1574L20.6013 19.1757C19.3832 19.9979 18.9447 20.4729 19.0665 21.1733L19.1274 21.4596C19.7425 23.4024 20.9362 25.4732 22.7086 27.3186C24.4626 29.1397 26.3628 30.2298 28.2326 30.9851C28.7199 31.1495 29.2254 31.0094 29.7431 30.5648L29.7491 30.5587C30.145 30.1872 30.4617 29.7913 30.6932 29.365V29.3589C30.9307 28.8899 30.8515 28.4636 30.5165 28.1774Z" fill="#AE9BA5"/>
<path id="Vector_3" d="M27.6037 23.9205C27.5306 23.9205 27.4697 23.8596 27.4636 23.7865C27.4392 23.281 27.3052 22.8973 27.0616 22.6415C26.818 22.3857 26.4587 22.2456 25.9836 22.2151C25.9044 22.209 25.8496 22.1421 25.8496 22.0629C25.8557 21.9837 25.9166 21.9228 25.9958 21.9289C26.5439 21.9593 26.9642 22.1299 27.2565 22.4405C27.5488 22.7511 27.7133 23.1957 27.7377 23.7743C27.7437 23.8535 27.6828 23.9205 27.6037 23.9266" fill="#AE9BA5"/>
<path id="Vector_4" d="M28.9865 24.3946C28.9073 24.3946 28.8464 24.3276 28.8464 24.2484C28.8708 23.28 28.5845 22.4639 28.006 21.8183C27.7197 21.4955 27.3665 21.2397 26.9645 21.0631C26.5625 20.8804 26.0875 20.7707 25.5698 20.7342C25.4906 20.7281 25.4358 20.6611 25.4419 20.5819C25.448 20.5027 25.515 20.4418 25.5941 20.4479C26.7087 20.5332 27.5918 20.9291 28.2191 21.6295C28.8464 22.3299 29.1571 23.2191 29.1327 24.2606C29.1266 24.3336 29.0657 24.3946 28.9865 24.3946Z" fill="#AE9BA5"/>
<path id="Vector_5" d="M30.4056 24.9677C30.3264 24.9677 30.2655 24.9068 30.2655 24.8276C30.2594 23.975 30.1315 23.2015 29.8818 22.5315C29.6321 21.8677 29.2606 21.283 28.7733 20.7897C28.2861 20.3024 27.7258 19.9309 27.1228 19.6812C26.5138 19.4315 25.8377 19.3036 25.1069 19.3036C25.0277 19.3036 24.9668 19.2366 24.9668 19.1574C24.9668 19.0782 25.0277 19.0173 25.1069 19.0173C26.6417 19.0295 27.9389 19.5533 28.9682 20.5826C29.4859 21.1003 29.8818 21.7215 30.1437 22.428C30.4056 23.1284 30.5396 23.9384 30.5457 24.8276C30.5457 24.9007 30.4848 24.9616 30.4056 24.9677Z" fill="#AE9BA5"/>
</g>
</g>
</g>
</svg>

<svg xmlns="http://www.w3.org/2000/svg" width="50" height="50" fill="none">
  <rect width="49" height="49" x=".5" y=".5" stroke="#E4DEE0" rx="24.5"/>
  <g fill="#AE9BA5">
    <path d="M34.522 27.447c-.59 4.878-4.074 5.183-4.72 5.396-.274.091-2.814.737-6.011.524l-3.46 3.837-.006-4.422-.024-.006c-4.653-1.322-4.495-6.285-4.446-8.886.055-2.6.53-4.738 1.949-6.17 2.546-2.363 7.802-2.01 7.802-2.01 4.434.019 6.56 1.39 7.052 1.846 1.639 1.431 2.473 4.866 1.864 9.89Zm-.651-11.11c-.585-.547-2.936-2.295-8.18-2.32 0 0-6.182-.383-9.197 2.449-1.675 1.717-2.265 4.233-2.332 7.351-.061 3.118-.14 8.96 5.36 10.543h.006v2.418s-.037.98.596 1.175c.762.244 1.206-.5 1.937-1.303a54.45 54.45 0 0 0 1.364-1.578c3.764.323 6.657-.42 6.98-.524.761-.255 5.055-.816 5.755-6.657.713-6.029-.359-9.836-2.29-11.553Z"/>
    <path d="M30.517 28.177s-.707-.603-1.048-.858c-.323-.244-.84-.573-1.127-.737-.517-.293-1.047-.11-1.267.182l-.456.585c-.232.299-.591.244-.683.225-.67-.17-1.382-.584-2.113-1.29-.737-.713-1.188-1.456-1.346-2.23l-.012-.049c-.043-.316.012-.462.14-.682l.024-.018c.305-.286.877-.633.95-.962.226-.573-.749-1.773-.883-1.98 0 0-.706-.931-.956-1.114-.268-.226-.688-.354-1.114-.092l-.025.019c-1.218.822-1.656 1.297-1.534 1.997l.06.287c.616 1.942 1.81 4.013 3.582 5.859 1.754 1.82 3.654 2.91 5.524 3.666.487.165.992.024 1.51-.42l.006-.006c.396-.372.713-.768.944-1.194v-.006c.238-.47.159-.895-.177-1.182ZM27.604 23.92a.145.145 0 0 1-.14-.134c-.025-.505-.159-.889-.402-1.145-.244-.255-.603-.395-1.078-.426-.08-.006-.134-.073-.134-.152.006-.08.067-.14.146-.134.548.03.968.2 1.26.512.293.31.457.755.482 1.333a.143.143 0 0 1-.134.153"/>
    <path d="M28.986 24.395a.143.143 0 0 1-.14-.147c.025-.968-.262-1.784-.84-2.43a2.996 2.996 0 0 0-1.041-.755 4.078 4.078 0 0 0-1.395-.329.138.138 0 0 1-.128-.152.143.143 0 0 1 .152-.134c1.115.085 1.998.481 2.625 1.181.627.7.938 1.59.914 2.632a.146.146 0 0 1-.146.134Z"/>
    <path d="M30.406 24.968c-.08 0-.14-.061-.14-.14-.007-.853-.134-1.627-.384-2.296a4.92 4.92 0 0 0-1.109-1.742 5.081 5.081 0 0 0-1.65-1.109 5.281 5.281 0 0 0-2.016-.377.143.143 0 0 1-.14-.147c0-.079.06-.14.14-.14 1.535.012 2.832.536 3.861 1.566a5.09 5.09 0 0 1 1.176 1.845c.262.7.396 1.51.402 2.4 0 .073-.061.134-.14.14Z"/>
  </g>
</svg>
